apps/48/ibus.svg

<?xml version="1.0" encoding="UTF-8" standalone="no"?>
<!-- Created with Inkscape (http://www.inkscape.org/) -->

<svg
   xmlns:svg="http://www.w3.org/2000/svg"
   xmlns="http://www.w3.org/2000/svg"
   xmlns:xlink="http://www.w3.org/1999/xlink"
   version="1.0"
   width="48"
   height="48"
   id="svg4908">
  <defs
     id="defs4910">
    <linearGradient
       id="linearGradient5554">
      <stop
         id="stop5556"
         style="stop-color:#7d7f79;stop-opacity:1"
         offset="0" />
      <stop
         id="stop5558"
         style="stop-color:#a5a7a2;stop-opacity:1"
         offset="1" />
    </linearGradient>
    <linearGradient
       id="linearGradient5954">
      <stop
         id="stop5956"
         style="stop-color:white;stop-opacity:1"
         offset="0" />
      <stop
         id="stop5958"
         style="stop-color:white;stop-opacity:0"
         offset="1" />
    </linearGradient>
    <linearGradient
       id="linearGradient5946">
      <stop
         id="stop5948"
         style="stop-color:white;stop-opacity:1"
         offset="0" />
      <stop
         id="stop5950"
         style="stop-color:white;stop-opacity:0"
         offset="1" />
    </linearGradient>
    <linearGradient
       id="linearGradient5566">
      <stop
         id="stop5568"
         style="stop-color:#eeeeec;stop-opacity:1"
         offset="0" />
      <stop
         id="stop5570"
         style="stop-color:#eeeeec;stop-opacity:0"
         offset="1" />
    </linearGradient>
    <linearGradient
       id="linearGradient5684">
      <stop
         id="stop5686"
         style="stop-color:white;stop-opacity:1"
         offset="0" />
      <stop
         id="stop5688"
         style="stop-color:#fbfbfa;stop-opacity:0"
         offset="1" />
    </linearGradient>
    <linearGradient
       id="linearGradient5582">
      <stop
         id="stop5584"
         style="stop-color:#f1f1ef;stop-opacity:1"
         offset="0" />
      <stop
         id="stop5586"
         style="stop-color:#dcdfd8;stop-opacity:1"
         offset="1" />
    </linearGradient>
    <linearGradient
       x1="9.1899414"
       y1="38.01667"
       x2="6.7953143"
       y2="40.66832"
       id="linearGradient3888"
       xlink:href="#linearGradient5954"
       gradientUnits="userSpaceOnUse"
       gradientTransform="matrix(0.95085594,0,0,0.94972044,1.102306,1.1876898)" />
    <linearGradient
       x1="39.767197"
       y1="38.497765"
       x2="40.912174"
       y2="40.530697"
       id="linearGradient3891"
       xlink:href="#linearGradient5946"
       gradientUnits="userSpaceOnUse"
       gradientTransform="matrix(0.95085594,0,0,0.94972044,1.102306,1.1876898)" />
    <linearGradient
       x1="8.0708427"
       y1="9.5091877"
       x2="8.1333427"
       y2="5.6960859"
       id="linearGradient3896"
       xlink:href="#linearGradient5566"
       gradientUnits="userSpaceOnUse"
       gradientTransform="matrix(2.0764476,0,0,2.0771589,1.1448413,0.13341893)" />
    <linearGradient
       x1="11.05373"
       y1="7.068707"
       x2="11.05373"
       y2="-0.064231448"
       id="linearGradient3898"
       xlink:href="#linearGradient5684"
       gradientUnits="userSpaceOnUse"
       gradientTransform="matrix(2.0915273,0,0,2.0771589,0.8808213,0.13341893)" />
    <radialGradient
       cx="4.0799417"
       cy="5.0786786"
       r="9.9909229"
       fx="4.0799417"
       fy="5.0786786"
       id="radialGradient3901"
       xlink:href="#linearGradient5582"
       gradientUnits="userSpaceOnUse"
       gradientTransform="matrix(1.701121,0,-2.5149135e-6,2.0543533,6.1379187,1.3748977)" />
    <linearGradient
       x1="16.066387"
       y1="26.936842"
       x2="16.362761"
       y2="2.9876688"
       id="linearGradient3903"
       xlink:href="#linearGradient5554"
       gradientUnits="userSpaceOnUse"
       gradientTransform="matrix(0.95085594,0,0,0.94972044,1.102306,1.1876898)" />
    <linearGradient
       x1="38"
       y1="9"
       x2="40"
       y2="7"
       id="linearGradient3913"
       xlink:href="#linearGradient5946"
       gradientUnits="userSpaceOnUse" />
    <linearGradient
       id="linearGradient2783">
      <stop
         id="stop2785"
         style="stop-color:#8fb3d9;stop-opacity:1"
         offset="0" />
      <stop
         id="stop2787"
         style="stop-color:#4d78b7;stop-opacity:1"
         offset="1" />
    </linearGradient>
    <linearGradient
       x1="24"
       y1="3"
       x2="24"
       y2="45"
       id="linearGradient4142"
       xlink:href="#linearGradient2783"
       gradientUnits="userSpaceOnUse" />
    <linearGradient
       x1="24"
       y1="3"
       x2="24"
       y2="45"
       id="linearGradient4146"
       xlink:href="#linearGradient2783"
       gradientUnits="userSpaceOnUse"
       gradientTransform="matrix(1.047619,0,0,1.047619,-1.1428572,-1.1428571)" />
  </defs>
  <g
     id="g4169">
    <rect
       width="44"
       height="44"
       rx="4.5"
       ry="4.5"
       x="2"
       y="2"
       id="rect4144"
       style="opacity:0.3;fill:url(#linearGradient4146);fill-opacity:1;stroke:none" />
    <rect
       width="42"
       height="42"
       rx="3.8"
       ry="3.8"
       x="3"
       y="3"
       id="rect3915"
       style="fill:url(#linearGradient4142);fill-opacity:1;stroke:none" />
    <path
       d="m 41.791985,5.6085874 -4.192412,3.9400498 0,28.4401728 4.094325,3.76348 0.09809,-36.1437026 z"
       id="path5548"
       style="fill:#d3d7cf;fill-opacity:1;fill-rule:evenodd;stroke:none" />
    <rect
       width="39"
       height="39"
       rx="2.5"
       ry="2.5"
       x="4.5"
       y="4.5"
       id="rect4965"
       style="fill:url(#radialGradient3901);fill-opacity:1;stroke:url(#linearGradient3903);stroke-width:0.99999994;stroke-linecap:round;stroke-linejoin:miter;stroke-miterlimit:4;stroke-opacity:1;stroke-dasharray:none;stroke-dashoffset:0" />
    <rect
       width="27"
       height="27"
       rx="1.4730128"
       ry="1.4730128"
       x="10.5"
       y="9.5"
       id="rect5570"
       style="fill:url(#linearGradient3896);fill-opacity:1;stroke:url(#linearGradient3898);stroke-width:1;stroke-linecap:round;stroke-linejoin:miter;stroke-miterlimit:4;stroke-opacity:1;stroke-dasharray:none;stroke-dashoffset:0" />
    <rect
       width="37"
       height="37"
       rx="1.339058"
       ry="1.3390579"
       x="5.5"
       y="5.5"
       id="rect5580"
       style="opacity:0.42708333;fill:none;stroke:white;stroke-width:1;stroke-linecap:round;stroke-linejoin:miter;stroke-miterlimit:4;stroke-opacity:1;stroke-dasharray:none;stroke-dashoffset:0" />
    <path
       d="m 40.868232,6.564119 -3.569428,3.479568"
       id="path5574"
       style="fill:#eff0ed;fill-opacity:1;fill-rule:evenodd;stroke:url(#linearGradient3913);stroke-width:0.99999994px;stroke-linecap:butt;stroke-linejoin:miter;stroke-opacity:1" />
    <path
       d="m 37.041231,36.15681 3.747899,4.193323"
       id="path5576"
       style="fill:none;stroke:url(#linearGradient3891);stroke-width:0.99999994px;stroke-linecap:butt;stroke-linejoin:miter;stroke-opacity:1" />
    <path
       d="M 10.70216,36.287512 6.9542602,40.480835"
       id="path5578"
       style="fill:none;stroke:url(#linearGradient3888);stroke-width:0.99999994px;stroke-linecap:butt;stroke-linejoin:miter;stroke-opacity:1" />
    <path
       d="M 26.857422,30.955078 29,31 l 0,2 -9,0 0,-2 2,0 0,-8.000001 -2,0 0,-2 7,0 L 27,31"
       id="text1891"
       style="font-size:28px;font-style:normal;font-weight:normal;fill:black;fill-opacity:1;stroke:none;font-family:Bitstream Vera Sans" />
    <path
       d="m 31,22.5 a 1.5,1.5 0 1 1 -3,0 1.5,1.5 0 1 1 3,0 z"
       transform="matrix(1.666667,0,0,1.666667,-24.66668,-21.00001)"
       id="path2782"
       style="fill:black;fill-opacity:1;stroke:none" />
  </g>
</svg>

<?xml version="1.0" encoding="UTF-8" standalone="no"?>
<!-- Created with Inkscape (http://www.inkscape.org/) -->
<svg
   xmlns:dc="http://purl.org/dc/elements/1.1/"
   xmlns:cc="http://creativecommons.org/ns#"
   xmlns:rdf="http://www.w3.org/1999/02/22-rdf-syntax-ns#"
   xmlns:svg="http://www.w3.org/2000/svg"
   xmlns="http://www.w3.org/2000/svg"
   xmlns:xlink="http://www.w3.org/1999/xlink"
   xmlns:sodipodi="http://sodipodi.sourceforge.net/DTD/sodipodi-0.dtd"
   xmlns:inkscape="http://www.inkscape.org/namespaces/inkscape"
   version="1.0"
   width="48"
   height="48"
   id="svg4908"
   sodipodi:version="0.32"
   inkscape:version="0.46"
   sodipodi:docname="ibus.svg"
   inkscape:output_extension="org.inkscape.output.svg.inkscape">
  <metadata
     id="metadata47">
    <rdf:RDF>
      <cc:Work
         rdf:about="">
        <dc:format>image/svg+xml</dc:format>
        <dc:type
           rdf:resource="http://purl.org/dc/dcmitype/StillImage" />
      </cc:Work>
    </rdf:RDF>
  </metadata>
  <sodipodi:namedview
     inkscape:window-height="793"
     inkscape:window-width="1440"
     inkscape:pageshadow="2"
     inkscape:pageopacity="0.0"
     guidetolerance="10.0"
     gridtolerance="10.0"
     objecttolerance="10.0"
     borderopacity="1.0"
     bordercolor="#666666"
     pagecolor="#ffffff"
     id="base"
     showgrid="false"
     inkscape:zoom="12.166667"
     inkscape:cx="22.561644"
     inkscape:cy="24"
     inkscape:window-x="0"
     inkscape:window-y="24"
     inkscape:current-layer="svg4908" />
  <defs
     id="defs4910">
    <linearGradient
       id="linearGradient5554">
      <stop
         id="stop5556"
         style="stop-color:#7d7f79;stop-opacity:1"
         offset="0" />
      <stop
         id="stop5558"
         style="stop-color:#a5a7a2;stop-opacity:1"
         offset="1" />
    </linearGradient>
    <linearGradient
       id="linearGradient5954">
      <stop
         id="stop5956"
         style="stop-color:white;stop-opacity:1"
         offset="0" />
      <stop
         id="stop5958"
         style="stop-color:white;stop-opacity:0"
         offset="1" />
    </linearGradient>
    <linearGradient
       id="linearGradient5946">
      <stop
         id="stop5948"
         style="stop-color:white;stop-opacity:1"
         offset="0" />
      <stop
         id="stop5950"
         style="stop-color:white;stop-opacity:0"
         offset="1" />
    </linearGradient>
    <linearGradient
       id="linearGradient5566">
      <stop
         id="stop5568"
         style="stop-color:#eeeeec;stop-opacity:1"
         offset="0" />
      <stop
         id="stop5570"
         style="stop-color:#eeeeec;stop-opacity:0"
         offset="1" />
    </linearGradient>
    <linearGradient
       id="linearGradient5684">
      <stop
         id="stop5686"
         style="stop-color:white;stop-opacity:1"
         offset="0" />
      <stop
         id="stop5688"
         style="stop-color:#fbfbfa;stop-opacity:0"
         offset="1" />
    </linearGradient>
    <linearGradient
       id="linearGradient5582">
      <stop
         id="stop5584"
         style="stop-color:#f1f1ef;stop-opacity:1"
         offset="0" />
      <stop
         id="stop5586"
         style="stop-color:#dcdfd8;stop-opacity:1"
         offset="1" />
    </linearGradient>
    <linearGradient
       id="linearGradient2783">
      <stop
         id="stop2785"
         style="stop-color:#8fb3d9;stop-opacity:1"
         offset="0" />
      <stop
         id="stop2787"
         style="stop-color:#4d78b7;stop-opacity:1"
         offset="1" />
    </linearGradient>
    <linearGradient
       inkscape:collect="always"
       xlink:href="#linearGradient5954"
       id="linearGradient2425"
       gradientUnits="userSpaceOnUse"
       gradientTransform="matrix(0.9508559,0,0,0.9497204,1.102306,1.1876898)"
       x1="9.1899414"
       y1="38.01667"
       x2="6.7953143"
       y2="40.66832" />
    <linearGradient
       inkscape:collect="always"
       xlink:href="#linearGradient5946"
       id="linearGradient2428"
       gradientUnits="userSpaceOnUse"
       gradientTransform="matrix(0.9508559,0,0,0.9497204,1.102306,1.1876898)"
       x1="39.767197"
       y1="38.497765"
       x2="40.912174"
       y2="40.530697" />
    <linearGradient
       inkscape:collect="always"
       xlink:href="#linearGradient5946"
       id="linearGradient2431"
       gradientUnits="userSpaceOnUse"
       x1="38"
       y1="9"
       x2="40"
       y2="7" />
    <linearGradient
       inkscape:collect="always"
       xlink:href="#linearGradient5566"
       id="linearGradient2435"
       gradientUnits="userSpaceOnUse"
       gradientTransform="matrix(2.0764476,0,0,2.0771589,1.1448413,0.1334189)"
       x1="8.0708427"
       y1="9.5091877"
       x2="8.1333427"
       y2="5.6960859" />
    <linearGradient
       inkscape:collect="always"
       xlink:href="#linearGradient5684"
       id="linearGradient2437"
       gradientUnits="userSpaceOnUse"
       gradientTransform="matrix(2.0915273,0,0,2.0771589,0.8808213,0.1334189)"
       x1="11.05373"
       y1="7.068707"
       x2="11.05373"
       y2="-0.064231448" />
    <radialGradient
       inkscape:collect="always"
       xlink:href="#linearGradient5582"
       id="radialGradient2440"
       gradientUnits="userSpaceOnUse"
       gradientTransform="matrix(1.701121,0,-2.5149135e-6,2.0543533,6.1379187,1.3748977)"
       cx="4.0799417"
       cy="5.0786786"
       fx="4.0799417"
       fy="5.0786786"
       r="9.9909229" />
    <linearGradient
       inkscape:collect="always"
       xlink:href="#linearGradient5554"
       id="linearGradient2442"
       gradientUnits="userSpaceOnUse"
       gradientTransform="matrix(0.9508559,0,0,0.9497204,1.102306,1.1876898)"
       x1="16.066387"
       y1="26.936842"
       x2="16.362761"
       y2="2.9876688" />
    <linearGradient
       inkscape:collect="always"
       xlink:href="#linearGradient2783"
       id="linearGradient2446"
       gradientUnits="userSpaceOnUse"
       x1="24"
       y1="3"
       x2="24"
       y2="45" />
    <linearGradient
       inkscape:collect="always"
       xlink:href="#linearGradient2783"
       id="linearGradient2449"
       gradientUnits="userSpaceOnUse"
       gradientTransform="matrix(1.047619,0,0,1.047619,4.774951,-0.9784735)"
       x1="24"
       y1="3"
       x2="24"
       y2="45" />
    <filter
       inkscape:collect="always"
       id="filter3233">
      <feGaussianBlur
         inkscape:collect="always"
         stdDeviation="1.05"
         id="feGaussianBlur3235" />
    </filter>
  </defs>
  <rect
     style="fill:url(#linearGradient2446);fill-opacity:1;stroke:none;filter:url(#filter3233)"
     id="rect3915"
     y="3"
     x="3"
     ry="3.8"
     rx="3.8"
     height="42"
     width="42" />
  <path
     style="fill:#d3d7cf;fill-opacity:1;fill-rule:evenodd;stroke:none"
     id="path5548"
     d="M 41.791985,5.6085874 L 37.599573,9.5486372 L 37.599573,37.98881 L 41.693898,41.75229 L 41.791988,5.6085874 L 41.791985,5.6085874 z" />
  <rect
     style="fill:url(#radialGradient2440);fill-opacity:1;stroke:url(#linearGradient2442);stroke-width:0.99999994;stroke-linecap:round;stroke-linejoin:miter;stroke-miterlimit:4;stroke-dasharray:none;stroke-dashoffset:0;stroke-opacity:1"
     id="rect4965"
     y="4.5"
     x="4.5"
     ry="2.5"
     rx="2.5"
     height="39"
     width="39" />
  <rect
     style="fill:url(#linearGradient2435);fill-opacity:1;stroke:url(#linearGradient2437);stroke-width:1;stroke-linecap:round;stroke-linejoin:miter;stroke-miterlimit:4;stroke-dasharray:none;stroke-dashoffset:0;stroke-opacity:1"
     id="rect5570"
     y="9.5"
     x="10.5"
     ry="1.4730128"
     rx="1.4730128"
     height="27"
     width="27" />
  <rect
     style="opacity:0.42708333;fill:none;stroke:#ffffff;stroke-width:1;stroke-linecap:round;stroke-linejoin:miter;stroke-miterlimit:4;stroke-dasharray:none;stroke-dashoffset:0;stroke-opacity:1"
     id="rect5580"
     y="5.5"
     x="5.5"
     ry="1.3390579"
     rx="1.339058"
     height="37"
     width="37" />
  <path
     style="fill:#eff0ed;fill-opacity:1;fill-rule:evenodd;stroke:url(#linearGradient2431);stroke-width:0.99999994px;stroke-linecap:butt;stroke-linejoin:miter;stroke-opacity:1"
     id="path5574"
     d="M 40.868232,6.564119 L 37.298804,10.043687" />
  <path
     style="fill:none;stroke:url(#linearGradient2428);stroke-width:0.99999994px;stroke-linecap:butt;stroke-linejoin:miter;stroke-opacity:1"
     id="path5576"
     d="M 37.041231,36.15681 L 40.78913,40.350133" />
  <path
     style="fill:none;stroke:url(#linearGradient2425);stroke-width:0.99999994px;stroke-linecap:butt;stroke-linejoin:miter;stroke-opacity:1"
     id="path5578"
     d="M 10.70216,36.287512 L 6.9542602,40.480835" />
  <path
     style="font-size:28px;font-style:normal;font-weight:normal;fill:#000000;fill-opacity:1;stroke:none;font-family:Bitstream Vera Sans"
     id="text1891"
     d="M 26.857422,30.955078 L 29,31 L 29,33 L 20,33 L 20,31 L 22,31 L 22,22.999999 L 20,22.999999 L 20,20.999999 L 27,20.999999 L 27,31" />
  <path
     style="fill:#000000;fill-opacity:1;stroke:none"
     id="path2782"
     d="M 26.999997,16.499997 C 26.999997,17.880709 25.880708,18.999998 24.499996,18.999998 C 23.119285,18.999998 21.999996,17.880709 21.999996,16.499997 C 21.999996,15.119286 23.119285,13.999997 24.499996,13.999997 C 25.880708,13.999997 26.999997,15.119286 26.999997,16.499997 z" />
</svg>
